ui/StatusQ/src/assets/img/icons/external-link.svg

<svg fill="none" height="24" viewBox="0 0 24 24" width="24" xmlns="http://www.w3.org/2000/svg"><path clip-rule="evenodd" d="m12 5.75c0 .41421.3358.75.75.75h2.2959c.4455 0 .6686.53857.3536.85355l-5.1798 5.17985c-.29292.2929-.29292.7677 0 1.0606.2929.2929.7677.2929 1.0606 0l5.1799-5.17979c.3149-.31498.8535-.0919.8535.35356v2.57623c0 .4143.3358.75.75.75s.75-.3357.75-.75v-5.594c0-.41421-.3358-.75-.75-.75h-5.3137c-.4142 0-.75.33579-.75.75zm-2 1c0 .41421-.33579.75-.75.75h-.25c-1.38071 0-2.5 1.11929-2.5 2.5v5c0 1.3807 1.11929 2.5 2.5 2.5h5c1.3807 0 2.5-1.1193 2.5-2.5v-.25c0-.4142.3358-.75.75-.75s.75.3358.75.75v.25c0 2.2091-1.7909 4-4 4h-5c-2.20914 0-4-1.7909-4-4v-5c0-2.20914 1.79086-4 4-4h.25c.41421 0 .75.33579.75.75z" fill="#4360df" fill-rule="evenodd"/></svg>

<svg width="24" height="24" viewBox="0 0 24 24" fill="none" xmlns="http://www.w3.org/2000/svg">
<g id="Action / External Link">
<path id="Icon" fill-rule="evenodd" clip-rule="evenodd" d="M12 5.75C12 6.16421 12.3358 6.5 12.75 6.5L15.0459 6.5C15.4914 6.5 15.7145 7.03857 15.3995 7.35355L10.2197 12.5334C9.92678 12.8263 9.92678 13.3011 10.2197 13.594C10.5126 13.8869 10.9874 13.8869 11.2803 13.594L16.4602 8.41421C16.7751 8.09923 17.3137 8.32231 17.3137 8.76777L17.3137 11.344C17.3137 11.7583 17.6495 12.094 18.0637 12.094C18.4779 12.094 18.8137 11.7583 18.8137 11.344L18.8137 5.75C18.8137 5.33579 18.4779 5 18.0637 5H12.75C12.3358 5 12 5.33579 12 5.75ZM10 6.75C10 7.16421 9.66421 7.5 9.25 7.5H9C7.61929 7.5 6.5 8.61929 6.5 10V15C6.5 16.3807 7.61929 17.5 9 17.5H14C15.3807 17.5 16.5 16.3807 16.5 15V14.75C16.5 14.3358 16.8358 14 17.25 14C17.6642 14 18 14.3358 18 14.75V15C18 17.2091 16.2091 19 14 19H9C6.79086 19 5 17.2091 5 15V10C5 7.79086 6.79086 6 9 6H9.25C9.66421 6 10 6.33579 10 6.75Z" fill="#4360DF"/>
</g>
</svg>
